X: 91
T:Compliments to Sean Maguire
R:reel
C:Brendan Mulvihill
S:Jerry Holland Book
M:C|
L:1/8
K:Bb
(3FE_D|:DB,~B,2 FB,DF|EDEF EFG_A|AF~F2 cFAc|BABc BGFE|
DB,~B,2 A,B,_A,B,|G,EED EFG_A|AF~F2 cFAc|[1 BABc B2 (3FE_D:|[2 BABc B2gf
|:dBFB DFBc|dBAc BAGF|GeFd EcDB|AF~F2 cFAc|
B/B/BfB bBfB|gBfB AF~F2|[1 G/G/GeG F/F/FdF|EcAc B2gf:|[2 E/E/EcE dEcE|AG (3FGA B2z2|

